src/assets/ikoner/overtaAvtalen.svg

<svg width="23" height="23" viewBox="0 0 16 16" fill="none" xmlns="http://www.w3.org/2000/svg">
    <path fill-rule="evenodd" clip-rule="evenodd" d="M8.41301 3.68534L8.13101 4.22601C7.82367 4.81601 6.78834 5.33334 5.91634 5.33334C5.61767 5.33334 4.90434 5.06401 4.39101 4.82134C4.82701 3.00401 6.24034 1.66667 7.91634 1.66667C9.69701 1.66667 11.1843 3.17601 11.5137 5.16867C11.325 5.24667 11.089 5.33334 10.9163 5.33334C9.83701 5.33334 9.26301 5.17201 8.71567 4.21467L8.41301 3.68534ZM9.99967 11.0987L13.1177 12.212C14.0437 12.5427 14.6663 13.426 14.6663 14.4093V16H1.33301V14.4093C1.33301 13.426 1.95501 12.5427 2.88101 12.212L5.99967 11.0987V9.68667C4.95167 8.92334 4.24967 7.55867 4.24967 6.00001C4.24967 5.83134 4.26034 5.66534 4.27634 5.50134C4.76834 5.72267 5.48367 6.00001 5.91634 6.00001C6.83367 6.00001 7.83967 5.56334 8.40901 4.96401C9.05034 5.82334 9.81301 6.00001 10.9163 6.00001C11.1383 6.00001 11.3697 5.93401 11.577 5.85801C11.5776 5.87773 11.5787 5.89745 11.5798 5.91717C11.5814 5.94478 11.583 5.97239 11.583 6.00001C11.583 7.47534 10.955 8.77867 9.99967 9.562V11.0987Z" fill="#0067C5"/>
</svg>

<svg width="23" height="23" viewBox="0 0 16 16" fill="none" xmlns="http://www.w3.org/2000/svg"><path fill-rule="evenodd" clip-rule="evenodd" d="M8.413 3.685l-.282.541c-.307.59-1.343 1.107-2.215 1.107-.298 0-1.012-.269-1.525-.512.436-1.817 1.85-3.154 3.525-3.154 1.781 0 3.268 1.509 3.598 3.502-.189.078-.425.164-.598.164-1.079 0-1.653-.161-2.2-1.118l-.303-.53zM10 11.1l3.118 1.113a2.339 2.339 0 011.548 2.197V16H1.333v-1.59c0-.984.622-1.867 1.548-2.198L6 11.099V9.687C4.952 8.923 4.25 7.559 4.25 6c0-.169.01-.335.026-.499.492.222 1.208.499 1.64.499.918 0 1.924-.437 2.493-1.036C9.05 5.824 9.813 6 10.916 6c.222 0 .454-.066.661-.142l.003.06c.001.027.003.054.003.082 0 1.475-.628 2.779-1.583 3.562v1.537z" fill="#0067C5"/></svg>
